img/icon/bage-verify.svg

<svg width="22" height="22" viewBox="0 0 22 22" fill="none" xmlns="http://www.w3.org/2000/svg">
<path d="M3.0987 7.72705L3.09878 7.72687C3.16766 7.56082 3.21493 7.34623 3.25039 7.06746C3.27342 6.88635 3.28775 6.717 3.3034 6.53199C3.31327 6.41534 3.32367 6.29246 3.33711 6.15648C3.39659 5.55454 3.50802 4.70347 4.10575 4.10575C4.70368 3.50781 5.55482 3.39639 6.15692 3.33694C6.29299 3.32351 6.41593 3.31312 6.53263 3.30326C6.71759 3.28763 6.88688 3.27333 7.06796 3.25032C7.34673 3.21489 7.56128 3.16765 7.72729 3.09878L7.72737 3.09874C7.88026 3.03534 8.05585 2.92178 8.27423 2.74952C8.41133 2.64138 8.53043 2.53948 8.66086 2.42791C8.75555 2.3469 8.85622 2.26079 8.97406 2.16347C9.44865 1.77157 10.1351 1.25 11 1.25C11.8651 1.25 12.5515 1.77153 13.0262 2.16347C13.1439 2.26073 13.2445 2.34681 13.3392 2.42779C13.4697 2.53941 13.5889 2.64134 13.726 2.7495C13.9443 2.92173 14.12 3.03529 14.2729 3.0987L14.2731 3.09878C14.4392 3.16765 14.6537 3.2149 14.9324 3.25032C15.1135 3.27333 15.2827 3.28763 15.4676 3.30326C15.5843 3.31312 15.7072 3.32351 15.8433 3.33694C16.4453 3.39639 17.2962 3.50781 17.8941 4.1056L3.0987 7.72705ZM3.0987 7.72705C3.03528 7.88005 2.92171 8.05571 2.74947 8.27412C2.6413 8.41128 2.53933 8.5305 2.42768 8.66104C2.34671 8.75569 2.26066 8.85631 2.16345 8.97404C1.77156 9.44865 1.25 10.1351 1.25 11C1.25 11.8649 1.77157 12.5514 2.16347 13.0259M3.0987 7.72705L2.16347 13.0259M18.9012 7.72687L18.9013 7.72705C18.9647 7.88005 19.0783 8.05571 19.2505 8.27412C19.3587 8.41129 19.4607 8.5305 19.5723 8.66105C19.6533 8.7557 19.7393 8.85631 19.8366 8.97404C20.2284 9.44865 20.75 10.1351 20.75 11C20.75 11.8649 20.2284 12.5514 19.8365 13.0259C19.7392 13.1438 19.6531 13.2445 19.5721 13.3392C19.4605 13.4696 19.3586 13.5887 19.2505 13.7258C19.0782 13.9441 18.9647 14.1197 18.9013 14.2726L18.9012 7.72687ZM18.9012 7.72687C18.8324 7.56086 18.7851 7.34631 18.7497 7.06754M18.9012 7.72687L18.7497 7.06754M17.8937 17.8944C17.296 18.492 16.4451 18.6034 15.8432 18.6628C15.707 18.6763 15.584 18.6867 15.4672 18.6966C15.2824 18.7122 15.1132 18.7265 14.9321 18.7495C14.6536 18.7848 14.439 18.832 14.2729 18.9007C14.1199 18.9642 13.9443 19.0779 13.726 19.2502C13.5889 19.3583 13.47 19.4601 13.3397 19.5716C13.2449 19.6527 13.1442 19.7389 13.0262 19.8364C12.5515 20.2285 11.8652 20.75 11 20.75C10.135 20.75 9.44864 20.2284 8.97402 19.8364C8.85603 19.739 8.7553 19.6528 8.66054 19.5717C8.53023 19.4602 8.41121 19.3584 8.27414 19.2502C8.05574 19.0779 7.88009 18.9642 7.72712 18.9007C7.56111 18.832 7.3466 18.7848 7.06798 18.7495C6.88693 18.7265 6.71769 18.7122 6.53283 18.6966C6.41602 18.6867 6.29297 18.6763 6.15676 18.6628C5.55471 18.6034 4.7035 18.492 4.10575 17.8943C3.50783 17.2963 3.39639 16.4453 3.33694 15.8432C3.32351 15.7072 3.31312 15.5842 3.30326 15.4675C3.28763 15.2826 3.27333 15.1133 3.25032 14.9322C3.2149 14.6534 3.16764 14.4388 3.09874 14.2726L17.8937 17.8944ZM17.8937 17.8944C18.4919 17.2965 18.6035 16.4455 18.663 15.8433M17.8937 17.8944L18.663 15.8433M18.663 15.8433C18.6765 15.7071 18.6869 15.584 18.6967 15.4672M18.663 15.8433L18.6967 15.4672M18.6967 15.4672C18.7124 15.2824 18.7267 15.1132 18.7497 14.9322M18.6967 15.4672L18.7497 14.9322M18.7497 14.9322C18.7851 14.6534 18.8324 14.4388 18.9013 14.2726L18.7497 14.9322ZM2.16347 13.0259C2.26079 13.1438 2.3469 13.2444 2.42791 13.3391M2.16347 13.0259L2.42791 13.3391M2.42791 13.3391C2.53948 13.4696 2.64138 13.5887 2.74952 13.7258M2.42791 13.3391L2.74952 13.7258M2.74952 13.7258C2.92177 13.9441 3.03533 14.1197 3.09874 14.2726L2.74952 13.7258ZM18.7497 7.06754C18.7267 6.88647 18.7124 6.71718 18.6967 6.53224M18.7497 7.06754L18.6967 6.53224M18.6967 6.53224C18.6869 6.41554 18.6765 6.29261 18.6631 6.15654M18.6967 6.53224L18.6631 6.15654M18.6631 6.15654C18.6036 5.55459 18.4922 4.7035 17.8943 4.10575L18.6631 6.15654Z" fill="url(#paint0_linear)" stroke="white" stroke-width="1.5"/>
<path d="M13.5714 9.71387L10.5719 13.0014L8.42859 10.8594" stroke="white" stroke-width="2" stroke-linecap="round"/>
<defs>
<linearGradient id="paint0_linear" x1="2" y1="2" x2="2" y2="20" gradientUnits="userSpaceOnUse">
<stop stop-color="#5986FB"/>
<stop offset="1" stop-color="#2D4EF5"/>
</linearGradient>
</defs>
</svg>

<svg width="22" height="22" fill="none" xmlns="http://www.w3.org/2000/svg"><path d="M3.099 7.727c.069-.166.116-.38.151-.66.023-.18.038-.35.053-.535.01-.117.02-.24.034-.376.06-.601.171-1.453.769-2.05.598-.598 1.449-.71 2.05-.77l.377-.033c.185-.015.354-.03.535-.053.279-.035.493-.082.66-.151.152-.064.328-.177.546-.35.137-.108.256-.21.387-.321.095-.081.195-.167.313-.265.475-.391 1.161-.913 2.026-.913.865 0 1.552.522 2.026.913.118.098.219.184.313.265.13.111.25.213.387.321.218.173.394.286.547.35.166.069.38.116.66.151.18.023.35.038.535.053.116.01.24.02.375.034.602.06 1.453.17 2.051.769L3.1 7.727zm0 0a2.452 2.452 0 0 1-.35.547c-.108.137-.21.257-.321.387-.081.095-.167.195-.265.313-.391.475-.913 1.161-.913 2.026 0 .865.522 1.551.913 2.026M3.1 7.727l-.936 5.299m16.738-5.3v.001c.064.153.177.329.35.547.108.137.21.257.321.387.081.095.167.195.265.313.391.475.913 1.161.913 2.026 0 .865-.522 1.551-.913 2.026-.098.118-.184.219-.265.313-.111.13-.213.25-.322.387a2.448 2.448 0 0 0-.349.547V7.727zm0 0a2.616 2.616 0 0 1-.151-.658m.151.659l-.151-.66m-.856 10.827c-.598.598-1.449.71-2.05.769l-.377.034c-.185.015-.354.03-.535.053a2.62 2.62 0 0 0-.66.15 2.453 2.453 0 0 0-.546.35c-.137.108-.256.21-.386.322-.095.08-.196.167-.314.264-.474.393-1.16.914-2.026.914-.865 0-1.551-.522-2.026-.914a22.094 22.094 0 0 1-.313-.264c-.13-.112-.25-.214-.387-.322a2.456 2.456 0 0 0-.547-.35 2.618 2.618 0 0 0-.659-.15c-.181-.023-.35-.038-.535-.053-.117-.01-.24-.02-.376-.034-.602-.06-1.454-.171-2.051-.769-.598-.598-.71-1.449-.77-2.05l-.033-.377a11.67 11.67 0 0 0-.053-.535 2.617 2.617 0 0 0-.151-.66l14.795 3.622zm0 0c.598-.597.71-1.448.769-2.05m-.77 2.05l.77-2.05m0 0c.014-.137.024-.26.034-.377m-.034.376l.034-.376m0 0c.015-.185.03-.354.053-.535m-.053.535l.053-.535m0 0c.035-.279.082-.493.151-.66l-.151.66zM2.163 13.026c.098.118.184.218.265.313m-.265-.313l.265.313m0 0c.111.13.213.25.322.387m-.322-.387l.322.387m0 0c.172.218.285.394.349.547l-.35-.547zm16-6.658c-.023-.182-.038-.35-.053-.536m.053.536l-.053-.536m0 0c-.01-.116-.02-.24-.034-.375m.034.375l-.034-.375m0 0c-.06-.602-.17-1.454-.769-2.051l.77 2.05z" fill="url(#paint0_linear)" stroke="#fff" stroke-width="1.5"/><path d="M13.571 9.714l-3 3.287L8.43 10.86" stroke="#fff" stroke-width="2" stroke-linecap="round"/><defs><linearGradient id="paint0_linear" x1="2" y1="2" x2="2" y2="20" gradientUnits="userSpaceOnUse"><stop stop-color="#5986FB"/><stop offset="1" stop-color="#2D4EF5"/></linearGradient></defs></svg>
